public/images/showcase/showcase3.svg

<svg xmlns="http://www.w3.org/2000/svg" width="654" height="733" fill="none" xmlns:v="https://vecta.io/nano"><path d="M275.033 608.164l-1.786 1.778a30 30 0 0 1-21.169 8.743H120.934c-1.068 0-1.934-.867-1.934-1.935V163.499a30 30 0 0 1 8.43-20.851l22.843-23.63a30 30 0 0 1 20.912-9.142l70.517-1.546a30 30 0 0 1 24.289 11.511l13.842 17.698a30 30 0 0 0 23.631 11.519H496c16.569 0 30 13.431 30 30v409.627c0 16.568-13.431 30-30 30h-98.436a30 30 0 0 1-21.168-8.743l-1.786-1.778a30 30 0 0 0-21.169-8.742h-57.24a30 30 0 0 0-21.168 8.742z" fill="#0299d5"/><path d="M120.548 618.685h.386m0 0h131.144a30 30 0 0 0 21.169-8.743l1.786-1.778a30 30 0 0 1 21.168-8.742h57.24a30 30 0 0 1 21.169 8.742l1.786 1.778a30 30 0 0 0 21.168 8.743H496c16.569 0 30-13.432 30-30V179.058c0-16.569-13.431-30-30-30H303.464a30 30 0 0 1-23.631-11.519l-13.842-17.698a30 30 0 0 0-24.289-11.511l-70.517 1.546c-7.903.174-15.418 3.459-20.912 9.142l-22.843 23.63a30 30 0 0 0-8.43 20.851V616.75c0 1.068.866 1.935 1.934 1.935z" stroke="#3ecaf9" stroke-width="6" stroke-linejoin="bevel"/><use href="#B" fill="#099ed5"/><use href="#B" stroke="#40cbf8" stroke-width="6" stroke-linejoin="bevel"/><path d="M119.68 320.558H124v2.682h-11.25v-6.75l2.214.324v3.744h2.7v-3.348h2.016v3.348zm-1.296-5.201c-1.176 0-2.142-.072-2.898-.216-.768-.156-1.368-.42-1.8-.792-.444-.372-.756-.876-.936-1.512-.18-.648-.27-1.464-.27-2.448 0-.972.09-1.782.27-2.43s.492-1.152.936-1.512c.432-.372 1.032-.636 1.8-.792.756-.156 1.722-.234 2.898-.234s2.142.078 2.898.234 1.356.42 1.8.792c.432.36.738.864.918 1.512s.27 1.458.27 2.43c0 .984-.09 1.8-.27 2.448-.18.636-.486 1.14-.918 1.512-.444.372-1.044.636-1.8.792-.756.144-1.722.216-2.898.216zm3.6-2.88v-2.682c0-.564-.084-.954-.252-1.17s-.462-.324-.882-.324h-6.084v2.718c0 .552.084.936.252 1.152.168.204.462.306.882.306h6.084zm1.818-16.514a7.03 7.03 0 0 1 .36 1.44 12.63 12.63 0 0 1 .108 1.764c0 .888-.096 1.626-.288 2.214-.192.576-.51 1.032-.954 1.368s-1.044.576-1.8.72-1.704.216-2.844.216c-1.152 0-2.106-.072-2.862-.216-.768-.156-1.374-.414-1.818-.774s-.756-.846-.936-1.458c-.192-.612-.288-1.392-.288-2.34a10.01 10.01 0 0 1 .054-.99l.144-1.026c.06-.336.132-.6.216-.792l2.16.342c-.072.264-.132.558-.18.882l-.108.918-.054.738c0 .672.084 1.146.252 1.422s.522.414 1.062.414h5.778l.144-.864c.036-.312.054-.618.054-.918 0-.504-.036-1.002-.108-1.494a9.03 9.03 0 0 0-.324-1.332l2.232-.234zm.468-6.121c0 .936-.06 1.704-.18 2.304s-.33 1.074-.63 1.422c-.3.336-.714.576-1.242.72-.528.132-1.2.198-2.016.198h-7.452v-2.682h9.234v-2.034c0-.516-.024-.906-.072-1.17-.06-.264-.156-.45-.288-.558-.144-.108-.342-.162-.594-.162h-8.28v-2.682h7.452c.804 0 1.476.072 2.016.216.528.144.942.39 1.242.738.3.336.51.804.63 1.404s.18 1.362.18 2.286zm-2.754-6.745c.156-.552.282-1.14.378-1.764.084-.624.126-1.236.126-1.836l-.018-.828c-.012-.264-.042-.57-.09-.918h-2.178l-.144 1.674c-.06.744-.162 1.368-.306 1.872s-.342.906-.594 1.206a2.11 2.11 0 0 1-.972.648c-.396.12-.888.18-1.476.18-.924 0-1.662-.126-2.214-.378s-.948-.666-1.188-1.242c-.24-.588-.36-1.362-.36-2.322a17.6 17.6 0 0 1 .108-1.98c.072-.648.18-1.296.324-1.944l2.142.342-.234 1.584a14.86 14.86 0 0 0-.072 1.512l.018.846.072.684h2.196l.126-1.656c.072-.96.24-1.722.504-2.286.252-.576.624-.99 1.116-1.242.48-.264 1.116-.396 1.908-.396.852 0 1.542.15 2.07.45s.912.78 1.152 1.44c.24.648.36 1.506.36 2.574 0 .744-.042 1.458-.126 2.142s-.222 1.356-.414 2.016l-2.214-.378zm51.451-144.565c0-1.92.13-3.51.39-4.77.28-1.28.74-2.29 1.38-3.03.66-.74 1.54-1.26 2.64-1.56 1.12-.32 2.52-.48 4.2-.48s3.07.16 4.17.48c1.1.3 1.97.82 2.61 1.56.64.72 1.1 1.72 1.38 3 .28 1.26.42 2.86.42 4.8 0 1.54-.09 2.87-.27 3.99-.16 1.12-.43 2.06-.81 2.82-.38.74-.9 1.33-1.56 1.77s-1.48.75-2.46.93c-.98.2-2.14.3-3.48.3-1.36 0-2.53-.1-3.51-.3-.96-.18-1.77-.49-2.43-.93-.66-.46-1.19-1.06-1.59-1.8-.38-.76-.66-1.69-.84-2.79-.16-1.12-.24-2.45-.24-3.99zm5.67-5.34v9.06c0 .64.13 1.07.39 1.29.28.2.85.3 1.71.3h3.75v-9.06c0-.64-.16-1.06-.48-1.26-.3-.22-.91-.33-1.83-.33h-3.54zm14.223 5.34c0-1.92.13-3.51.39-4.77.28-1.28.74-2.29 1.38-3.03.66-.74 1.54-1.26 2.64-1.56 1.12-.32 2.52-.48 4.2-.48s3.07.16 4.17.48c1.1.3 1.97.82 2.61 1.56.64.72 1.1 1.72 1.38 3 .28 1.26.42 2.86.42 4.8 0 1.54-.09 2.87-.27 3.99-.16 1.12-.43 2.06-.81 2.82-.38.74-.9 1.33-1.56 1.77s-1.48.75-2.46.93c-.98.2-2.14.3-3.48.3-1.36 0-2.53-.1-3.51-.3-.96-.18-1.77-.49-2.43-.93-.66-.46-1.19-1.06-1.59-1.8-.38-.76-.66-1.69-.84-2.79-.16-1.12-.24-2.45-.24-3.99zm5.67-5.34v9.06c0 .64.13 1.07.39 1.29.28.2.85.3 1.71.3h3.75v-9.06c0-.64-.16-1.06-.48-1.26-.3-.22-.91-.33-1.83-.33h-3.54zm20.522 15.12a28.19 28.19 0 0 1-3.54-.24l-3.66-.66.69-4.17a24.15 24.15 0 0 0 2.67.42l2.76.15c1.38 0 2.38-.07 3-.21v-2.94l-5.19-.78v-2.79l5.19-.87v-2.82c-.58-.14-1.49-.21-2.73-.21-.86 0-1.77.05-2.73.15-.94.1-1.82.24-2.64.42l-.69-4.14a31.92 31.92 0 0 1 3.66-.69c1.26-.16 2.43-.24 3.51-.24 2.46 0 4.29.4 5.49 1.2 1.2.78 1.8 2 1.8 3.66 0 1.14-.24 2.12-.72 2.94-.46.8-1.16 1.44-2.1 1.92v.15c.96.4 1.67.97 2.13 1.71s.69 1.65.69 2.73c0 1.22-.27 2.23-.81 3.03-.52.78-1.34 1.36-2.46 1.74-1.12.36-2.56.54-4.32.54z" fill="#fff"/><g filter="url(#A)"><rect x="200" y="200" width="254" height="333" rx="127" fill="#82ffd8"/></g><defs><filter id="A" x="0" y="0" width="654" height="733" filterUnits="userSpaceOnUse" color-interpolation-filters="sRGB"><feFlood flood-opacity="0"/><feBlend in="SourceGraphic"/><feGaussianBlur stdDeviation="100"/></filter><path id="B" d="M93 226.5c0-14.083 11.417-25.5 25.5-25.5s25.5 11.417 25.5 25.5v145c0 14.083-11.417 25.5-25.5 25.5S93 385.583 93 371.5v-145z"/></defs></svg>

<svg width="654" height="733" viewBox="0 0 654 733" fill="none" xmlns="http://www.w3.org/2000/svg">
<path d="M275.033 608.164L273.247 609.942C267.624 615.541 260.013 618.685 252.078 618.685H120.934C119.866 618.685 119 617.818 119 616.75L119 163.499C119 155.718 122.023 148.242 127.43 142.648L150.273 119.018C155.767 113.335 163.282 110.049 171.185 109.876L241.702 108.33C251.16 108.122 260.162 112.389 265.991 119.841L279.833 137.539C285.519 144.809 294.234 149.058 303.464 149.058H496C512.569 149.058 526 162.489 526 179.058V588.685C526 605.253 512.569 618.685 496 618.685H397.564C389.63 618.685 382.018 615.541 376.396 609.942L374.61 608.164C368.987 602.565 361.376 599.422 353.441 599.422H296.201C288.267 599.422 280.655 602.565 275.033 608.164Z" fill="#0299D5"/>
<path d="M120.548 618.685H120.934M120.934 618.685H252.078C260.013 618.685 267.624 615.541 273.247 609.942L275.033 608.164C280.655 602.565 288.267 599.422 296.201 599.422H353.441C361.376 599.422 368.987 602.565 374.61 608.164L376.396 609.942C382.018 615.541 389.63 618.685 397.564 618.685H496C512.569 618.685 526 605.253 526 588.685V179.058C526 162.489 512.569 149.058 496 149.058H303.464C294.234 149.058 285.519 144.809 279.833 137.539L265.991 119.841C260.162 112.389 251.16 108.122 241.702 108.33L171.185 109.876C163.282 110.05 155.767 113.335 150.273 119.018L127.43 142.648C122.023 148.242 119 155.718 119 163.499L119 616.75C119 617.818 119.866 618.685 120.934 618.685Z" stroke="#3ECAF9" stroke-width="6" stroke-linejoin="bevel"/>
<path d="M93 226.5C93 212.417 104.417 201 118.5 201C132.583 201 144 212.417 144 226.5V371.5C144 385.583 132.583 397 118.5 397C104.417 397 93 385.583 93 371.5V226.5Z" fill="#099ED5"/>
<path d="M93 226.5C93 212.417 104.417 201 118.5 201C132.583 201 144 212.417 144 226.5V371.5C144 385.583 132.583 397 118.5 397C104.417 397 93 385.583 93 371.5V226.5Z" stroke="#40CBF8" stroke-width="6" stroke-linejoin="bevel"/>
<path d="M119.68 320.558H124V323.24H112.75V316.49L114.964 316.814V320.558H117.664V317.21H119.68V320.558ZM118.384 315.357C117.208 315.357 116.242 315.285 115.486 315.141C114.718 314.985 114.118 314.721 113.686 314.349C113.242 313.977 112.93 313.473 112.75 312.837C112.57 312.189 112.48 311.373 112.48 310.389C112.48 309.417 112.57 308.607 112.75 307.959C112.93 307.311 113.242 306.807 113.686 306.447C114.118 306.075 114.718 305.811 115.486 305.655C116.242 305.499 117.208 305.421 118.384 305.421C119.56 305.421 120.526 305.499 121.282 305.655C122.038 305.811 122.638 306.075 123.082 306.447C123.514 306.807 123.82 307.311 124 307.959C124.18 308.607 124.27 309.417 124.27 310.389C124.27 311.373 124.18 312.189 124 312.837C123.82 313.473 123.514 313.977 123.082 314.349C122.638 314.721 122.038 314.985 121.282 315.141C120.526 315.285 119.56 315.357 118.384 315.357ZM121.984 312.477V309.795C121.984 309.231 121.9 308.841 121.732 308.625C121.564 308.409 121.27 308.301 120.85 308.301H114.766V311.019C114.766 311.571 114.85 311.955 115.018 312.171C115.186 312.375 115.48 312.477 115.9 312.477H121.984ZM123.802 295.963C123.97 296.419 124.09 296.899 124.162 297.403C124.234 297.907 124.27 298.495 124.27 299.167C124.27 300.055 124.174 300.793 123.982 301.381C123.79 301.957 123.472 302.413 123.028 302.749C122.584 303.085 121.984 303.325 121.228 303.469C120.472 303.613 119.524 303.685 118.384 303.685C117.232 303.685 116.278 303.613 115.522 303.469C114.754 303.313 114.148 303.055 113.704 302.695C113.26 302.335 112.948 301.849 112.768 301.237C112.576 300.625 112.48 299.845 112.48 298.897C112.48 298.597 112.498 298.267 112.534 297.907C112.57 297.547 112.618 297.205 112.678 296.881C112.738 296.545 112.81 296.281 112.894 296.089L115.054 296.431C114.982 296.695 114.922 296.989 114.874 297.313C114.826 297.625 114.79 297.931 114.766 298.231C114.73 298.531 114.712 298.777 114.712 298.969C114.712 299.641 114.796 300.115 114.964 300.391C115.132 300.667 115.486 300.805 116.026 300.805H121.804C121.864 300.529 121.912 300.241 121.948 299.941C121.984 299.629 122.002 299.323 122.002 299.023C122.002 298.519 121.966 298.021 121.894 297.529C121.81 297.037 121.702 296.593 121.57 296.197L123.802 295.963ZM124.27 289.842C124.27 290.778 124.21 291.546 124.09 292.146C123.97 292.746 123.76 293.22 123.46 293.568C123.16 293.904 122.746 294.144 122.218 294.288C121.69 294.42 121.018 294.486 120.202 294.486H112.75V291.804H121.984V289.77C121.984 289.254 121.96 288.864 121.912 288.6C121.852 288.336 121.756 288.15 121.624 288.042C121.48 287.934 121.282 287.88 121.03 287.88H112.75V285.198H120.202C121.006 285.198 121.678 285.27 122.218 285.414C122.746 285.558 123.16 285.804 123.46 286.152C123.76 286.488 123.97 286.956 124.09 287.556C124.21 288.156 124.27 288.918 124.27 289.842ZM121.516 283.097C121.672 282.545 121.798 281.957 121.894 281.333C121.978 280.709 122.02 280.097 122.02 279.497C122.02 279.197 122.014 278.921 122.002 278.669C121.99 278.405 121.96 278.099 121.912 277.751H119.734L119.59 279.425C119.53 280.169 119.428 280.793 119.284 281.297C119.14 281.801 118.942 282.203 118.69 282.503C118.438 282.803 118.114 283.019 117.718 283.151C117.322 283.271 116.83 283.331 116.242 283.331C115.318 283.331 114.58 283.205 114.028 282.953C113.476 282.701 113.08 282.287 112.84 281.711C112.6 281.123 112.48 280.349 112.48 279.389C112.48 278.705 112.516 278.045 112.588 277.409C112.66 276.761 112.768 276.113 112.912 275.465L115.054 275.807C114.946 276.383 114.868 276.911 114.82 277.391C114.772 277.859 114.748 278.363 114.748 278.903C114.748 279.251 114.754 279.533 114.766 279.749C114.778 279.953 114.802 280.181 114.838 280.433H117.034L117.16 278.777C117.232 277.817 117.4 277.055 117.664 276.491C117.916 275.915 118.288 275.501 118.78 275.249C119.26 274.985 119.896 274.853 120.688 274.853C121.54 274.853 122.23 275.003 122.758 275.303C123.286 275.603 123.67 276.083 123.91 276.743C124.15 277.391 124.27 278.249 124.27 279.317C124.27 280.061 124.228 280.775 124.144 281.459C124.06 282.143 123.922 282.815 123.73 283.475L121.516 283.097Z" fill="white"/>
<path d="M172.967 138.532C172.967 136.612 173.097 135.022 173.357 133.762C173.637 132.482 174.097 131.472 174.737 130.732C175.397 129.992 176.277 129.472 177.377 129.172C178.497 128.852 179.897 128.692 181.577 128.692C183.257 128.692 184.647 128.852 185.747 129.172C186.847 129.472 187.717 129.992 188.357 130.732C188.997 131.452 189.457 132.452 189.737 133.732C190.017 134.992 190.157 136.592 190.157 138.532C190.157 140.072 190.067 141.402 189.887 142.522C189.727 143.642 189.457 144.582 189.077 145.342C188.697 146.082 188.177 146.672 187.517 147.112C186.857 147.552 186.037 147.862 185.057 148.042C184.077 148.242 182.917 148.342 181.577 148.342C180.217 148.342 179.047 148.242 178.067 148.042C177.107 147.862 176.297 147.552 175.637 147.112C174.977 146.652 174.447 146.052 174.047 145.312C173.667 144.552 173.387 143.622 173.207 142.522C173.047 141.402 172.967 140.072 172.967 138.532ZM178.637 133.192V142.252C178.637 142.892 178.767 143.322 179.027 143.542C179.307 143.742 179.877 143.842 180.737 143.842H184.487V134.782C184.487 134.142 184.327 133.722 184.007 133.522C183.707 133.302 183.097 133.192 182.177 133.192H178.637ZM192.86 138.532C192.86 136.612 192.99 135.022 193.25 133.762C193.53 132.482 193.99 131.472 194.63 130.732C195.29 129.992 196.17 129.472 197.27 129.172C198.39 128.852 199.79 128.692 201.47 128.692C203.15 128.692 204.54 128.852 205.64 129.172C206.74 129.472 207.61 129.992 208.25 130.732C208.89 131.452 209.35 132.452 209.63 133.732C209.91 134.992 210.05 136.592 210.05 138.532C210.05 140.072 209.96 141.402 209.78 142.522C209.62 143.642 209.35 144.582 208.97 145.342C208.59 146.082 208.07 146.672 207.41 147.112C206.75 147.552 205.93 147.862 204.95 148.042C203.97 148.242 202.81 148.342 201.47 148.342C200.11 148.342 198.94 148.242 197.96 148.042C197 147.862 196.19 147.552 195.53 147.112C194.87 146.652 194.34 146.052 193.94 145.312C193.56 144.552 193.28 143.622 193.1 142.522C192.94 141.402 192.86 140.072 192.86 138.532ZM198.53 133.192V142.252C198.53 142.892 198.66 143.322 198.92 143.542C199.2 143.742 199.77 143.842 200.63 143.842H204.38V134.782C204.38 134.142 204.22 133.722 203.9 133.522C203.6 133.302 202.99 133.192 202.07 133.192H198.53ZM219.052 148.312C217.952 148.312 216.772 148.232 215.512 148.072C214.272 147.912 213.052 147.692 211.852 147.412L212.542 143.242C213.362 143.422 214.252 143.562 215.212 143.662C216.192 143.762 217.112 143.812 217.972 143.812C219.352 143.812 220.352 143.742 220.972 143.602V140.662L215.782 139.882V137.092L220.972 136.222V133.402C220.392 133.262 219.482 133.192 218.242 133.192C217.382 133.192 216.472 133.242 215.512 133.342C214.572 133.442 213.692 133.582 212.872 133.762L212.182 129.622C213.382 129.322 214.602 129.092 215.842 128.932C217.102 128.772 218.272 128.692 219.352 128.692C221.812 128.692 223.642 129.092 224.842 129.892C226.042 130.672 226.642 131.892 226.642 133.552C226.642 134.692 226.402 135.672 225.922 136.492C225.462 137.292 224.762 137.932 223.822 138.412V138.562C224.782 138.962 225.492 139.532 225.952 140.272C226.412 141.012 226.642 141.922 226.642 143.002C226.642 144.222 226.372 145.232 225.832 146.032C225.312 146.812 224.492 147.392 223.372 147.772C222.252 148.132 220.812 148.312 219.052 148.312Z" fill="white"/>
<g filter="url(#filter0_f_150_19983)">
<rect x="200" y="200" width="254" height="333" rx="127" fill="#82FFD8"/>
</g>
<defs>
<filter id="filter0_f_150_19983" x="0" y="0" width="654" height="733" filterUnits="userSpaceOnUse" color-interpolation-filters="sRGB">
<feFlood flood-opacity="0" result="BackgroundImageFix"/>
<feBlend mode="normal" in="SourceGraphic" in2="BackgroundImageFix" result="shape"/>
<feGaussianBlur stdDeviation="100" result="effect1_foregroundBlur_150_19983"/>
</filter>
</defs>
</svg>
